source/img/less.svg

<svg width="79" height="36" viewBox="0 0 79 36" version="1.1" xmlns="http://www.w3.org/2000/svg" xmlns:xlink="http://www.w3.org/1999/xlink">
<title>Vector</title>
<desc>Created using Figma</desc>
<g id="Canvas" transform="translate(-35 -689)">
<g id="Vector">
<use xlink:href="#path0_fill" transform="translate(35 689)" fill="#4173B9"/>
</g>
</g>
<defs>
<path id="path0_fill" d="M 63.2632 17.7274C 66.2336 18.7965 67.7188 20.6299 67.7188 23.2223C 67.7188 24.9247 67.1026 26.2798 65.8755 27.2846C 64.6457 28.2842 62.8945 28.9042 60.6141 28.9042C 58.3362 28.9042 56.2269 28.2254 54.2835 27.1136C 54.3046 26.5176 54.4573 25.8708 54.7365 25.1626C 55.0156 24.4597 55.3421 23.9011 55.724 23.4922C 57.5067 24.449 59.0604 24.9274 60.3797 24.9274C 61.0012 24.9274 61.4857 24.8205 61.8201 24.6067C 62.1546 24.3876 62.3205 24.0989 62.3205 23.7328C 62.3205 23.0486 61.807 22.5381 60.78 22.196L 58.9366 21.4798C 56.1453 20.4374 54.7496 18.727 54.7496 16.3617C 54.7496 14.6326 55.3342 13.2615 56.5087 12.2459C 57.6805 11.2357 59.2605 10.3644 61.2487 10.3644C 62.2309 10.3644 63.3132 10.5061 64.4982 10.792C 65.6832 11.0753 66.6523 11.7756 67.4107 12.1631C 67.4555 12.8045 67.3317 13.4994 67.042 14.2637C 66.7524 15.0254 66.3969 15.568 65.9703 15.886C 64.0953 15.0201 62.5338 14.5871 61.2829 14.5871C 60.8353 14.5871 60.4929 14.694 60.2559 14.8972C 60.0242 15.1003 59.9136 15.3622 59.9136 15.6802C 59.9136 16.2281 60.3349 16.6584 61.1829 16.9791L 63.2632 17.7274ZM 48.7535 17.7274C 51.7239 18.7965 53.2091 20.6299 53.2091 23.2223C 53.2091 24.9247 52.5929 26.2798 51.3658 27.2846C 50.136 28.2842 48.3849 28.9042 46.1044 28.9042C 43.8266 28.9042 41.7146 28.2254 39.7739 27.1136C 39.7949 26.5176 39.9477 25.8708 40.2268 25.1626C 40.5059 24.4597 40.8325 23.9011 41.2143 23.4922C 42.9997 24.449 44.5507 24.9274 45.87 24.9274C 46.4941 24.9274 46.976 24.8205 47.3105 24.6067C 47.6449 24.3876 47.8108 24.0989 47.8108 23.7328C 47.8108 23.0486 47.2973 22.5381 46.2703 22.196L 44.427 21.4798C 41.6356 20.4374 40.24 18.727 40.24 16.3617C 40.24 14.6326 40.8246 13.2615 41.999 12.2459C 43.1709 11.2357 44.7509 10.3644 46.739 10.3644C 47.7213 10.3644 48.8062 10.5061 49.9886 10.792C 51.1736 11.0753 52.1426 11.7756 52.9037 12.1631C 52.9458 12.8045 52.8194 13.4994 52.535 14.2637C 52.2453 15.0254 51.8846 15.568 51.4553 15.886C 49.5804 15.0201 48.0188 14.5871 46.768 14.5871C 46.3203 14.5871 45.978 14.694 45.741 14.8972C 45.5119 15.1003 45.3987 15.3622 45.3987 15.6802C 45.3987 16.2281 45.82 16.6584 46.6679 16.9791L 48.7483 17.7274L 48.7535 17.7274ZM 37.6251 17.968C 37.6251 19.3577 37.4776 20.6486 37.1906 21.6027L 28.4584 21.6027C 28.5032 22.6183 28.7613 23.2811 29.2274 23.8477C 29.6961 24.4089 30.465 24.6896 31.5368 24.6896C 32.0714 24.6896 32.6902 24.6094 33.3933 24.4597C 34.0964 24.3047 34.9048 24.0508 35.8212 23.698C 36.5586 24.4731 37.0141 25.5207 37.1906 26.841C 35.3999 28.1372 33.2063 28.9069 30.6072 28.9069C 29.1984 28.9069 28.016 28.5595 27.0628 28.1051C 26.1148 27.6508 25.3406 27.0094 24.7454 26.1942C 24.1529 25.3764 23.7316 24.4089 23.4867 23.2945C 23.2392 22.18 23.118 20.9613 23.118 19.641C 23.118 18.3662 23.2681 17.1902 23.571 16.1078C 23.8712 15.0281 24.3346 14.09 24.9482 13.2909C 25.567 12.4945 26.3491 11.8691 27.3024 11.4148C 28.2504 10.9604 29.3669 10.3671 30.6467 10.3671C 31.7185 10.3671 32.6876 10.915 33.5487 11.2758C 34.4124 11.6419 35.1445 12.1417 35.7501 12.7805C 36.3558 13.4219 36.8193 14.1809 37.1458 15.0709C 37.4671 15.9582 37.6303 16.9257 37.6303 17.9733L 37.6251 17.968ZM 28.4242 18.2032L 32.8219 18.2032L 32.8219 17.829C 32.8219 16.9871 32.6375 15.886 32.2689 15.3435C 31.9055 14.7929 31.3551 14.5203 30.623 14.5203C 29.912 14.5203 29.3854 14.7769 29.043 15.29C 28.6954 15.7978 28.49 17.0432 28.4242 18.2032ZM 76.7248 20.2744C 75.7952 21.1243 75.2501 22.3457 75.2501 23.9412L 75.2501 29.8904C 75.2501 31.8682 74.6708 33.3728 73.3541 34.4071C 72.0375 35.4414 70.5101 35.9519 68.759 36L 67.7188 35.9893L 67.7188 33.0227C 68.6326 32.7474 69.0091 32.4241 69.3725 32.0552C 70.0309 31.4352 70.5365 30.425 70.5365 29.0192L 70.5365 24.2138C 70.5628 22.5835 70.6813 21.306 71.2475 20.3813C 71.8215 19.4566 72.9328 18.6495 74.5918 17.9493C 72.7616 17.078 71.5371 15.9395 70.9104 14.5337C 70.5417 13.6998 70.5338 12.572 70.5338 11.1555L 70.5338 6.75106C 70.5338 5.2945 70.0783 4.27624 69.5174 3.69361C 69.1487 3.3141 68.7274 3.0121 67.7162 2.78492L 67.7162 7.56326e-05C 68.9538 0.0134386 69.5779 7.56326e-05 70.2968 7.56326e-05C 71.4028 -0.00794217 72.3324 0.622792 73.1408 1.28292C 74.0204 2.00453 74.6418 2.98002 75.0105 4.20942C 75.2212 4.91766 75.2475 5.59917 75.2475 6.2406L 75.2475 11.3372C 75.2475 13.1359 75.7584 14.4722 76.63 15.3461C 77.1172 15.8539 77.8097 16.3163 79 16.7359L 79 19.0343C 77.9467 19.339 77.2883 19.7506 76.7195 20.2717L 76.7248 20.2744ZM 9.2588 7.56326e-05C 9.52213 7.56326e-05 9.8513 7.56326e-05 10.2121 7.56326e-05L 13.9777 7.56326e-05C 13.9777 1.18136 13.9777 1.84952 13.9777 2.91321L 11.6867 2.90786C 10.9231 3.12167 10.3701 3.37824 10.0541 3.69361C 9.48527 4.27624 9.15347 5.29717 9.15347 6.75106L 9.15347 11.1555C 9.15347 12.572 9.01127 13.6998 8.6347 14.5337C 7.9948 15.9395 6.7387 17.078 4.8743 17.9546C 6.5649 18.6495 7.7025 19.4566 8.28447 20.3787C 8.8638 21.3034 9.12713 22.5809 9.15347 24.2165L 9.15347 29.0218C 9.15347 30.425 9.53267 31.4352 10.2068 32.0579C 10.5755 32.4241 11.0969 32.7474 12.0291 33.0254L 12.0291 35.992L 10.8335 36C 9.04287 35.9465 7.4813 35.4388 6.13567 34.4018C 4.79267 33.3702 4.3292 31.8628 4.3292 29.8851L 4.3292 23.9386C 4.3292 22.343 3.64453 21.119 2.69127 20.2691C 2.11193 19.7479 1.07703 19.339 0 19.0343L 0 16.7359C 1.2166 16.3163 2.28573 15.8539 2.78607 15.3461C 3.6735 14.4722 4.3292 13.1359 4.3292 11.3372L 4.3292 6.24327C 4.3292 5.5965 4.30287 4.94973 4.43453 4.21209C 4.67943 2.94795 5.451 2.00453 6.3516 1.28292C 7.17583 0.622792 8.12383 -0.00794217 9.25617 7.56326e-05L 9.2588 7.56326e-05ZM 21.6302 24.2593C 21.9014 25.021 22.0384 25.7773 22.0384 26.539C 22.0384 27.2953 22.0041 27.7898 21.933 28.0196C 20.5716 28.2495 19.3524 28.3617 18.2859 28.3617C 16.7375 28.3617 15.642 27.9822 14.9942 27.2178C 14.3438 26.4535 13.9777 25.2508 13.9777 23.6098L 13.9777 7.56326e-05L 14.2253 0.00541994L 16.3056 0.00541994C 17.3747 0.00541994 18.1226 7.59065e-05 18.5597 0.478471C 18.9916 0.954194 19.3287 1.78805 19.3287 2.96933L 19.3287 22.653C 19.3287 23.7221 19.7052 24.2566 20.7085 24.2566L 21.6302 24.2566L 21.6302 24.2593Z"/>
</defs>
</svg>

<svg width="79" height="36" xmlns="http://www.w3.org/2000/svg" xmlns:xlink="http://www.w3.org/1999/xlink"><use xlink:href="#path0_fill" fill="#4173B9"/><defs><path id="path0_fill" d="M63.263 17.727c2.97 1.07 4.456 2.903 4.456 5.495 0 1.703-.616 3.058-1.843 4.063-1.23 1-2.982 1.62-5.262 1.62-2.278 0-4.387-.68-6.33-1.791.02-.596.173-1.243.453-1.951.279-.703.605-1.262.987-1.67 1.783.956 3.336 1.434 4.656 1.434.621 0 1.106-.107 1.44-.32.335-.22.5-.508.5-.874 0-.684-.513-1.195-1.54-1.537l-1.843-.716c-2.792-1.043-4.187-2.753-4.187-5.118 0-1.73.584-3.1 1.759-4.116 1.172-1.01 2.752-1.882 4.74-1.882.982 0 2.064.142 3.25.428 1.184.283 2.153.984 2.912 1.371.044.642-.08 1.336-.369 2.1-.29.762-.645 1.305-1.072 1.623-1.875-.866-3.436-1.299-4.687-1.299-.448 0-.79.107-1.027.31a.99.99 0 0 0-.342.783c0 .548.42.978 1.269 1.3l2.08.747zm-14.51 0c2.97 1.07 4.456 2.903 4.456 5.495 0 1.703-.616 3.058-1.843 4.063-1.23 1-2.981 1.62-5.262 1.62-2.277 0-4.39-.68-6.33-1.791.02-.596.174-1.243.453-1.951.279-.703.606-1.262.987-1.67 1.786.956 3.337 1.434 4.656 1.434.624 0 1.106-.107 1.44-.32.335-.22.5-.508.5-.874 0-.684-.513-1.195-1.54-1.537l-1.843-.716c-2.791-1.043-4.187-2.753-4.187-5.118 0-1.73.585-3.1 1.759-4.116 1.172-1.01 2.752-1.882 4.74-1.882.982 0 2.067.142 3.25.428 1.185.283 2.154.984 2.915 1.371.042.642-.085 1.336-.369 2.1-.29.762-.65 1.305-1.08 1.623-1.875-.866-3.436-1.299-4.687-1.299-.448 0-.79.107-1.027.31a.999.999 0 0 0-.342.783c0 .548.421.978 1.269 1.3l2.08.747h.006zm-11.128.241c0 1.39-.147 2.68-.434 3.635h-8.733c.045 1.015.303 1.678.77 2.245.468.56 1.237.842 2.309.842.534 0 1.153-.08 1.856-.23.703-.155 1.512-.41 2.428-.762.738.775 1.193 1.823 1.37 3.143-1.791 1.296-3.985 2.066-6.584 2.066a8.158 8.158 0 0 1-3.544-.802 6.074 6.074 0 0 1-2.318-1.91c-.592-.819-1.013-1.786-1.258-2.9-.248-1.115-.369-2.334-.369-3.654 0-1.275.15-2.45.453-3.533.3-1.08.764-2.018 1.377-2.817a6.434 6.434 0 0 1 2.354-1.876c.948-.455 2.065-1.048 3.345-1.048 1.072 0 2.04.548 2.902.909a6.46 6.46 0 0 1 2.201 1.505c.606.64 1.07 1.4 1.396 2.29.321.887.484 1.855.484 2.902l-.005-.005zm-9.2.235h4.397v-.374c0-.842-.184-1.943-.553-2.486-.363-.55-.914-.823-1.646-.823-.711 0-1.238.257-1.58.77-.348.508-.553 1.753-.619 2.913zm48.3 2.071c-.93.85-1.475 2.072-1.475 3.667v5.95c0 1.977-.58 3.482-1.896 4.516-1.317 1.034-2.844 1.545-4.595 1.593l-1.04-.01v-2.967c.914-.276 1.29-.599 1.654-.968.658-.62 1.163-1.63 1.163-3.036v-4.805c.027-1.63.145-2.908.712-3.833.573-.924 1.685-1.732 3.344-2.432-1.83-.871-3.055-2.01-3.682-3.415-.368-.834-.376-1.962-.376-3.379V6.752c0-1.457-.456-2.475-1.017-3.057-.368-.38-.79-.682-1.8-.91V0c1.237.013 1.86 0 2.58 0 1.106-.008 2.035.623 2.844 1.283.88.722 1.5 1.697 1.87 2.926.21.709.237 1.39.237 2.032v5.096c0 1.799.51 3.135 1.382 4.01.487.507 1.18.97 2.37 1.389v2.298c-1.053.305-1.712.717-2.28 1.238l.005.002zM9.259 0h4.719v2.913l-2.291-.005c-.764.214-1.317.47-1.633.786-.569.582-.9 1.603-.9 3.057v4.404c0 1.417-.143 2.545-.52 3.379-.64 1.405-1.895 2.544-3.76 3.42 1.69.695 2.829 1.503 3.41 2.425.58.924.843 2.202.87 3.837v4.806c0 1.403.379 2.413 1.053 3.036.368.366.89.69 1.822.967v2.967L10.834 36c-1.791-.053-3.353-.561-4.698-1.598-1.343-1.032-1.807-2.54-1.807-4.517V23.94c0-1.596-.684-2.82-1.638-3.67-.58-.521-1.614-.93-2.691-1.235v-2.298c1.217-.42 2.286-.882 2.786-1.39.888-.874 1.543-2.21 1.543-4.009V6.243c0-.647-.026-1.293.106-2.03.244-1.265 1.016-2.208 1.917-2.93C7.176.623 8.124-.007 9.256 0h.003zM21.63 24.26c.271.761.408 1.517.408 2.279 0 .756-.034 1.25-.105 1.48-1.361.23-2.58.343-3.647.343-1.549 0-2.644-.38-3.292-1.144-.65-.765-1.016-1.967-1.016-3.608V0l.247.005h2.08c1.07 0 1.818-.005 2.255.473.432.476.769 1.31.769 2.491v19.684c0 1.07.376 1.604 1.38 1.604h.921v.002z"/></defs></svg>
